public/cloud-icons/azure/compute/lab.svg

<?xml version="1.0" encoding="UTF-8" standalone="no"?>
<!-- Generated by Microsoft Visio, SVG Export Lab.svg Page-1 -->

<svg
   xmlns:dc="http://purl.org/dc/elements/1.1/"
   xmlns:cc="http://creativecommons.org/ns#"
   xmlns:rdf="http://www.w3.org/1999/02/22-rdf-syntax-ns#"
   xmlns:svg="http://www.w3.org/2000/svg"
   xmlns="http://www.w3.org/2000/svg"
   xmlns:sodipodi="http://sodipodi.sourceforge.net/DTD/sodipodi-0.dtd"
   xmlns:inkscape="http://www.inkscape.org/namespaces/inkscape"
   width="56.690418"
   height="51.027"
   viewBox="0 0 56.690418 51.027"
   xml:space="preserve"
   class="st6"
   version="1.1"
   id="svg60"
   sodipodi:docname="Lab.svg"
   style="font-size:12px;overflow:visible;color-interpolation-filters:sRGB;fill:none;fill-rule:evenodd;stroke-linecap:square;stroke-miterlimit:3"
   inkscape:version="0.92.5 (2060ec1f9f, 2020-04-08)"><metadata
   id="metadata64"><rdf:RDF><cc:Work
       rdf:about=""><dc:format>image/svg+xml</dc:format><dc:type
         rdf:resource="http://purl.org/dc/dcmitype/StillImage" /></cc:Work></rdf:RDF></metadata><sodipodi:namedview
   pagecolor="#ffffff"
   bordercolor="#666666"
   borderopacity="1"
   objecttolerance="10"
   gridtolerance="10"
   guidetolerance="10"
   inkscape:pageopacity="0"
   inkscape:pageshadow="2"
   inkscape:window-width="640"
   inkscape:window-height="480"
   id="namedview62"
   showgrid="false"
   inkscape:zoom="1.9825435"
   inkscape:cx="28.34651"
   inkscape:cy="25.504799"
   inkscape:window-x="0"
   inkscape:window-y="0"
   inkscape:window-maximized="0"
   inkscape:current-layer="svg60" />
	<style
   type="text/css"
   id="style2">
	<![CDATA[
		.st1 {fill:url(#grad0-6);stroke:none;stroke-linecap:butt;stroke-width:34}
		.st2 {fill:url(#grad0-10);stroke:none;stroke-linecap:butt;stroke-width:34}
		.st3 {fill:url(#grad0-14);stroke:none;stroke-linecap:butt;stroke-width:34}
		.st4 {fill:url(#grad0-18);stroke:none;stroke-linecap:butt;stroke-width:34}
		.st5 {fill:#ffffff;stroke:none;stroke-linecap:butt;stroke-width:34}
		.st6 {fill:none;fill-rule:evenodd;font-size:12px;overflow:visible;stroke-linecap:square;stroke-miterlimit:3}
	]]>
	</style>

	<defs
   id="Patterns_And_Gradients">
		<linearGradient
   id="grad0-6"
   x1="-8.1193854e-06"
   y1="109.78864"
   x2="37.802993"
   y2="109.78864"
   gradientTransform="scale(1.2398492,0.80654972)"
   gradientUnits="userSpaceOnUse">
			<stop
   offset="0"
   stop-color="#005ba1"
   stop-opacity="1"
   id="stop4" />
			<stop
   offset="1"
   stop-color="#0078d4"
   stop-opacity="1"
   id="stop6" />
		</linearGradient>
		<linearGradient
   id="grad0-10"
   x1="-8.1193854e-06"
   y1="109.78864"
   x2="37.802993"
   y2="109.78864"
   gradientTransform="scale(1.2398492,0.80654972)"
   gradientUnits="userSpaceOnUse">
			<stop
   offset="0"
   stop-color="#0078d4"
   stop-opacity="1"
   id="stop9" />
			<stop
   offset="0.815"
   stop-color="#5ea0ef"
   stop-opacity="1"
   id="stop11" />
		</linearGradient>
		<linearGradient
   id="grad0-14"
   x1="0"
   y1="151.30175"
   x2="16.616955"
   y2="151.30175"
   gradientTransform="scale(1.4106074,0.70891447)"
   gradientUnits="userSpaceOnUse">
			<stop
   offset="0.15"
   stop-color="#cccccc"
   stop-opacity="1"
   id="stop14" />
			<stop
   offset="1"
   stop-color="#707070"
   stop-opacity="1"
   id="stop16" />
		</linearGradient>
		<linearGradient
   id="grad0-18"
   x1="0.22123105"
   y1="100.25789"
   x2="22.123318"
   y2="100.25789"
   gradientTransform="scale(1.0262095,0.97445992)"
   gradientUnits="userSpaceOnUse">
			<stop
   offset="0"
   stop-color="#9cebff"
   stop-opacity="1"
   id="stop19" />
			<stop
   offset="1"
   stop-color="#50e6ff"
   stop-opacity="1"
   id="stop21" />
		</linearGradient>
	</defs>
	<g
   id="g58"
   transform="translate(-33.99999,-33.9973)">
		<title
   id="title25">Page-1</title>
		<g
   id="group11880-1"
   transform="translate(34,-34.0157)">
			<title
   id="title27">Lab.11880</title>
			<g
   id="group11881-2">
				<title
   id="title29">Sheet.11881</title>
				<g
   id="shape11882-3"
   transform="translate(0,-20.537)">
					<title
   id="title31">Sheet.11882</title>
					<path
   d="m 0,117.51 a 1.56267,1.52453 -180 0 0 1.56,1.53 h 43.75 a 1.56267,1.52453 -180 0 0 1.56,-1.53 V 90.08 A 1.56267,1.52453 -180 0 0 45.31,88.55 H 1.56 A 1.56267,1.52453 -180 0 0 0,90.08 Z"
   class="st1"
   id="path33"
   inkscape:connector-curvature="0"
   style="fill:url(#grad0-6);stroke:none;stroke-width:34;stroke-linecap:butt" />
				</g>
				<g
   id="shape11883-7"
   transform="translate(9.8204,-11.7752)">
					<title
   id="title36">Sheet.11883</title>
					<path
   d="m 0,117.51 a 1.56267,1.52453 -180 0 0 1.56,1.53 h 43.75 a 1.56267,1.52453 -180 0 0 1.56,-1.53 V 90.08 A 1.56267,1.52453 -180 0 0 45.31,88.55 H 1.56 A 1.56267,1.52453 -180 0 0 0,90.08 Z"
   class="st2"
   id="path38"
   inkscape:connector-curvature="0"
   style="fill:url(#grad0-10);stroke:none;stroke-width:34;stroke-linecap:butt" />
				</g>
				<g
   id="shape11884-11"
   transform="translate(21.5253)">
					<title
   id="title41">Sheet.11884</title>
					<path
   d="m 21.12,116.49 c -4.64,-0.71 -4.81,-3.98 -4.8,-9.23 H 7.13 c 0,5.25 -0.17,8.52 -4.81,9.23 A 2.72715,2.66058 -180 0 0 0,119.04 h 23.44 a 2.73711,2.67029 -180 0 0 -2.32,-2.55 z"
   class="st3"
   id="path43"
   inkscape:connector-curvature="0"
   style="fill:url(#grad0-14);stroke:none;stroke-width:34;stroke-linecap:butt" />
				</g>
				<g
   id="shape11885-15"
   transform="translate(21.7907,-16.3487)">
					<title
   id="title46">Sheet.11885</title>
					<path
   d="M 21.88,119.04 H 1.06 c -0.67,0 -1.06,-1.03 -0.69,-1.57 l 7.18,-10.2 a 0.829426,0.809179 -180 0 0 0.145979,-0.45314 L 7.7,100.07 A 0.411395,0.401353 -180 0 0 7.285287,99.668647 L 6.89,99.67 A 0.82279,0.802706 0 0 1 6.077163,98.873767 L 6.07,98.5 A 0.82279,0.802706 0 0 1 6.882837,97.697294 L 16.02,97.7 a 0.82279,0.802706 0 0 1 0.82279,0.802706 L 16.84,98.87 a 0.82279,0.802706 0 0 1 -0.82279,0.802706 L 15.65,99.67 a 0.411395,0.401353 -180 0 0 -0.414713,0.40135 L 15.23,106.83 a 0.829426,0.809179 -180 0 0 0.145979,0.45314 L 22.56,117.47 c 0.37,0.53 -0.02,1.57 -0.68,1.57 z"
   class="st4"
   id="path48"
   inkscape:connector-curvature="0"
   style="fill:url(#grad0-18);stroke:none;stroke-width:34;stroke-linecap:butt" />
				</g>
				<g
   id="shape11886-19"
   transform="translate(25.2068,-18.3425)">
					<title
   id="title51">Sheet.11886</title>
					<path
   d="m 0.03,118.31 5.46,-7.77 a 1.99062,1.94203 -180 0 0 0.35,-1.1 v -3.11 a 0.633681,0.618213 0 0 1 0.620411,-0.61174 L 9.55,105.72 a 0.633681,0.618213 0 0 1 0.633681,0.61821 L 10.19,109.67 a 1.32708,1.29469 -180 0 0 0.23,0.74 l 5.57,7.9 a 0.474432,0.462851 0 0 1 -0.391489,0.72503 L 0.43,119.04 a 0.474432,0.462851 0 0 1 -0.391489,-0.7315 z"
   class="st5"
   id="path53"
   inkscape:connector-curvature="0"
   style="fill:#ffffff;stroke:none;stroke-width:34;stroke-linecap:butt" />
				</g>
			</g>
		</g>
	</g>
</svg>

<svg xmlns="http://www.w3.org/2000/svg" xml:space="preserve" width="56.69" height="51.027" style="font-size:12px;overflow:visible;color-interpolation-filters:sRGB;fill-rule:evenodd;stroke-linecap:square;stroke-miterlimit:3" viewBox="0 0 56.69 51.027"><defs><linearGradient id="a" x1="0" x2="37.803" y1="109.789" y2="109.789" gradientTransform="scale(1.23985 .80655)" gradientUnits="userSpaceOnUse"><stop offset="0" stop-color="#005ba1"/><stop offset="1" stop-color="#0078d4"/></linearGradient><linearGradient id="b" x1="0" x2="37.803" y1="109.789" y2="109.789" gradientTransform="scale(1.23985 .80655)" gradientUnits="userSpaceOnUse"><stop offset="0" stop-color="#0078d4"/><stop offset=".815" stop-color="#5ea0ef"/></linearGradient><linearGradient id="c" x1="0" x2="16.617" y1="151.302" y2="151.302" gradientTransform="scale(1.4106 .70891)" gradientUnits="userSpaceOnUse"><stop offset=".15" stop-color="#ccc"/><stop offset="1" stop-color="#707070"/></linearGradient><linearGradient id="d" x1=".221" x2="22.123" y1="100.258" y2="100.258" gradientTransform="scale(1.0262 .97446)" gradientUnits="userSpaceOnUse"><stop offset="0" stop-color="#9cebff"/><stop offset="1" stop-color="#50e6ff"/></linearGradient></defs><g transform="translate(-34 -33.997)"><title>Page-1</title><g transform="translate(34 -34.016)"><title>Lab.11880</title><title>Sheet.11881</title><g transform="translate(0 -20.537)"><title>Sheet.11882</title><path d="M0 117.51a1.563 1.525-180 0 0 1.56 1.53h43.75a1.563 1.525-180 0 0 1.56-1.53V90.08a1.563 1.525-180 0 0-1.56-1.53H1.56A1.563 1.525-180 0 0 0 90.08Z" style="fill:url(#a);stroke:none;stroke-width:34;stroke-linecap:butt"/></g><g transform="translate(9.82 -11.775)"><title>Sheet.11883</title><path d="M0 117.51a1.563 1.525-180 0 0 1.56 1.53h43.75a1.563 1.525-180 0 0 1.56-1.53V90.08a1.563 1.525-180 0 0-1.56-1.53H1.56A1.563 1.525-180 0 0 0 90.08Z" style="fill:url(#b);stroke:none;stroke-width:34;stroke-linecap:butt"/></g><g transform="translate(21.525)"><title>Sheet.11884</title><path d="M21.12 116.49c-4.64-.71-4.81-3.98-4.8-9.23H7.13c0 5.25-.17 8.52-4.81 9.23A2.727 2.66-180 0 0 0 119.04h23.44a2.737 2.67-180 0 0-2.32-2.55" style="fill:url(#c);stroke:none;stroke-width:34;stroke-linecap:butt"/></g><g transform="translate(21.79 -16.349)"><title>Sheet.11885</title><path d="M21.88 119.04H1.06c-.67 0-1.06-1.03-.69-1.57l7.18-10.2a.83.81-180 0 0 .146-.453l.004-6.747a.411.401-180 0 0-.415-.401l-.395.001a.823.803 0 0 1-.813-.796L6.07 98.5a.823.803 0 0 1 .813-.803l9.137.003a.823.803 0 0 1 .823.803l-.003.367a.823.803 0 0 1-.823.803l-.367-.003a.411.401-180 0 0-.415.401l-.005 6.759a.83.81-180 0 0 .146.453l7.184 10.187c.37.53-.02 1.57-.68 1.57" style="fill:url(#d);stroke:none;stroke-width:34;stroke-linecap:butt"/></g><g transform="translate(25.207 -18.343)"><title>Sheet.11886</title><path d="m.03 118.31 5.46-7.77a1.99 1.942-180 0 0 .35-1.1v-3.11a.634.618 0 0 1 .62-.612l3.09.002a.634.618 0 0 1 .634.618l.006 3.332a1.327 1.295-180 0 0 .23.74l5.57 7.9a.474.463 0 0 1-.391.725L.43 119.04a.474.463 0 0 1-.391-.731z" style="fill:#fff;stroke:none;stroke-width:34;stroke-linecap:butt"/></g></g></g></svg>
